styles/static/images/static-pages/infoQlive.svg

<svg fill="none" height="75" viewBox="0 0 394 75" width="394" xmlns="http://www.w3.org/2000/svg" xmlns:xlink="http://www.w3.org/1999/xlink"><clipPath id="a"><path d="m0 0h245v75h-245z"/></clipPath><g clip-path="url(#a)"><g fill="#2b6cad"><path d="m16.9232 1.55896h-16.401716v67.09014h16.401716z"/><path d="m27.6924 18.7715v49.8776h15.0009v-29.3705c0-3.5866.6391-6.1152 1.9174-7.5857 1.2783-1.4679 3.422-2.2045 6.4313-2.2045 2.5565 0 4.4233.7902 5.6057 2.3679 1.1823 1.5777 1.7709 4.0527 1.7709 7.4223v29.3705h15.0036v-30.1125c0-7.0821-1.3182-12.3428-3.9573-15.7741-2.6364-3.4339-6.655-5.1509-12.0583-5.1509-3.0225 0-5.7495.4795-8.1782 1.4384-2.426.959-4.6044 2.4134-6.5351 4.3607v-4.6392z"/><path d="m84.3939 29.1188v39.5303h15.0036v-39.5303h9.3095v-9.142h-9.3095v-1.9018c0-2.041.4394-3.4018 1.3265-4.0821.884-.6804 2.708-1.0205 5.475-1.0205h2.508v-10.44112c-1.443-.34018-2.828-.58661-4.157-.74196-1.328-.15536-2.636-.23036-3.914-.23036-5.8323 0-10.0292 1.16786-12.5911 3.50089-2.5618 2.33572-3.8427 6.15005-3.8427 11.43755 0 .3723.0053.7875.0239 1.2535.016.4634.0719 1.2054.1678 2.2259h-7.6216v9.142z"/><path clip-rule="evenodd" d="m116.398 62.9866c4.906 4.859 11.377 7.2858 19.419 7.2858 8.037 0 14.527-2.4349 19.462-7.3072 4.937-4.8723 7.406-11.2821 7.406-19.2321 0-7.9822-2.453-14.4054-7.358-19.2777-4.903-4.8723-11.409-7.3072-19.51-7.3072-8.01 0-14.473 2.4429-19.392 7.3286-4.921 4.8884-7.382 11.3063-7.382 19.2563 0 7.9794 2.453 14.4 7.355 19.2535zm11.097-8.4187c-2.074-2.6759-3.113-6.2866-3.113-10.8348 0-4.484 1.047-8.0893 3.137-10.8107 2.091-2.7215 4.855-4.0822 8.298-4.0822 3.502 0 6.293 1.3447 8.368 4.0366 2.074 2.6893 3.11 6.3081 3.11 10.8563 0 4.516-1.044 8.1187-3.134 10.8107-2.091 2.6919-4.871 4.0366-8.344 4.0366-3.475 0-6.247-1.3366-8.322-4.0125z" fill-rule="evenodd"/></g><path d="m202.465 56.2123c5.316 0 9.462-1.8455 12.442-5.5419 2.977-3.6965 4.466-8.8554 4.466-15.4742 0-6.6187-1.497-11.7937-4.493-15.5196-2.995-3.7286-7.131-5.5928-12.415-5.5928-5.249 0-9.379 1.8803-12.388 5.6383-3.012 3.7581-4.517 8.917-4.517 15.4741 0 6.5572 1.497 11.7 4.49 15.4259 2.996 3.7286 7.135 5.5902 12.415 5.5902zm17.728 9.8839c-2.479 1.3608-5.214 2.3974-8.207 3.1099-2.994.7098-6.165 1.066-9.513 1.066-10.268 0-18.484-3.1848-24.649-9.5571-6.162-6.3723-9.246-14.8795-9.246-25.5188 0-5.8151.94-11.0196 2.826-15.6133 1.882-4.5938 4.689-8.5152 8.423-11.76165 2.993-2.59821 6.38-4.54821 10.162-5.84732 3.782-1.299105 7.939-1.9473187 12.476-1.9473187 10.234 0 18.442 3.2008887 24.62 9.6053587 6.178 6.40183 9.268 14.92233 9.268 25.56423 0 4.4545-.514 8.4831-1.542 12.0858-1.031 3.6053-2.621 6.8598-4.778 9.766 1.931 1.7009 4.037 3.0563 6.32 4.0607 2.284 1.0045 4.729 1.6474 7.334 1.9259l-5.018 11.9706c-3.794-.3723-7.243-1.3072-10.346-2.8072-3.105-1.5026-5.813-3.5357-8.13-6.1018" fill="#1e8d44"/></g><g fill="#000"><path d="m261 19h1v38h-1z"/><path d="m309.201 50.3164h-15.363v-28.7275h-3.931v32.4111h19.294z"/><path d="m335.188 54v-3.5264h-6.558v-25.3584h6.558v-3.5263h-17.07v3.5263h6.559v25.3584h-6.559v3.5264z"/><path d="m355.201 49.2383h-.112l-8.401-27.6494h-4.155l10.445 32.4111h4.222l10.445-32.4111h-3.999z"/><path d="m393.609 50.3613h-15.161v-11.1406h14.33v-3.4814h-14.33v-10.5118h15.161v-3.6386h-19.136v32.4111h19.136z"/></g></svg>

<svg width="394" height="75" viewBox="0 0 394 75" fill="none" xmlns="http://www.w3.org/2000/svg">
<g clip-path="url(#clip0)">
<path d="M16.9232 1.55896H0.521484V68.6491H16.9232V1.55896Z" fill="#2B6CAD"/>
<path d="M27.6924 18.7715V68.6491H42.6933V39.2786C42.6933 35.692 43.3324 33.1634 44.6107 31.6929C45.889 30.225 48.0327 29.4884 51.042 29.4884C53.5985 29.4884 55.4653 30.2786 56.6477 31.8563C57.83 33.434 58.4186 35.909 58.4186 39.2786V68.6491H73.4222V38.5366C73.4222 31.4545 72.104 26.1938 69.4649 22.7625C66.8285 19.3286 62.8099 17.6116 57.4066 17.6116C54.3841 17.6116 51.6571 18.0911 49.2284 19.05C46.8024 20.009 44.624 21.4634 42.6933 23.4107V18.7715H27.6924Z" fill="#2B6CAD"/>
<path d="M84.3939 29.1188V68.6491H99.3975V29.1188H108.707V19.9768H99.3975V18.075C99.3975 16.034 99.8369 14.6732 100.724 13.9929C101.608 13.3125 103.432 12.9724 106.199 12.9724H108.707V2.53128C107.264 2.1911 105.879 1.94467 104.55 1.78932C103.222 1.63396 101.914 1.55896 100.636 1.55896C94.8037 1.55896 90.6068 2.72682 88.0449 5.05985C85.4831 7.39557 84.2022 11.2099 84.2022 16.4974C84.2022 16.8697 84.2075 17.2849 84.2261 17.7509C84.2421 18.2143 84.298 18.9563 84.3939 19.9768H76.7723V29.1188H84.3939Z" fill="#2B6CAD"/>
<path fill-rule="evenodd" clip-rule="evenodd" d="M116.398 62.9866C121.304 67.8456 127.775 70.2724 135.817 70.2724C143.854 70.2724 150.344 67.8375 155.279 62.9652C160.216 58.0929 162.685 51.6831 162.685 43.7331C162.685 35.7509 160.232 29.3277 155.327 24.4554C150.424 19.5831 143.918 17.1482 135.817 17.1482C127.807 17.1482 121.344 19.5911 116.425 24.4768C111.504 29.3652 109.043 35.7831 109.043 43.7331C109.043 51.7125 111.496 58.1331 116.398 62.9866ZM127.495 54.5679C125.421 51.892 124.382 48.2813 124.382 43.7331C124.382 39.2491 125.429 35.6438 127.519 32.9224C129.61 30.2009 132.374 28.8402 135.817 28.8402C139.319 28.8402 142.11 30.1849 144.185 32.8768C146.259 35.5661 147.295 39.1849 147.295 43.7331C147.295 48.2491 146.251 51.8518 144.161 54.5438C142.07 57.2357 139.29 58.5804 135.817 58.5804C132.342 58.5804 129.57 57.2438 127.495 54.5679Z" fill="#2B6CAD"/>
<path d="M202.465 56.2123C207.781 56.2123 211.927 54.3668 214.907 50.6704C217.884 46.9739 219.373 41.815 219.373 35.1962C219.373 28.5775 217.876 23.4025 214.88 19.6766C211.885 15.948 207.749 14.0838 202.465 14.0838C197.216 14.0838 193.086 15.9641 190.077 19.7221C187.065 23.4802 185.56 28.6391 185.56 35.1962C185.56 41.7534 187.057 46.8962 190.05 50.6221C193.046 54.3507 197.185 56.2123 202.465 56.2123ZM220.193 66.0962C217.714 67.457 214.979 68.4936 211.986 69.2061C208.992 69.9159 205.821 70.2721 202.473 70.2721C192.205 70.2721 183.989 67.0873 177.824 60.715C171.662 54.3427 168.578 45.8355 168.578 35.1962C168.578 29.3811 169.518 24.1766 171.404 19.5829C173.286 14.9891 176.093 11.0677 179.827 7.82125C182.82 5.22304 186.207 3.27304 189.989 1.97393C193.771 0.674825 197.928 0.0266113 202.465 0.0266113C212.699 0.0266113 220.907 3.2275 227.085 9.63197C233.263 16.0338 236.353 24.5543 236.353 35.1962C236.353 39.6507 235.839 43.6793 234.811 47.282C233.78 50.8873 232.19 54.1418 230.033 57.048C231.964 58.7489 234.07 60.1043 236.353 61.1087C238.637 62.1132 241.082 62.7561 243.687 63.0346L238.669 75.0052C234.875 74.6329 231.426 73.698 228.323 72.198C225.218 70.6954 222.51 68.6623 220.193 66.0962" fill="#1E8D44"/>
</g>
<rect x="261" y="19" width="1" height="38" fill="black"/>
<path d="M309.201 50.3164H293.838V21.5889H289.907V54H309.201V50.3164Z" fill="black"/>
<path d="M335.188 54V50.4736H328.63V25.1152H335.188V21.5889H318.118V25.1152H324.677V50.4736H318.118V54H335.188Z" fill="black"/>
<path d="M355.201 49.2383H355.089L346.688 21.5889H342.533L352.978 54H357.2L367.645 21.5889H363.646L355.201 49.2383Z" fill="black"/>
<path d="M393.609 50.3613H378.448V39.2207H392.778V35.7393H378.448V25.2275H393.609V21.5889H374.473V54H393.609V50.3613Z" fill="black"/>
<defs>
<clipPath id="clip0">
<rect width="245" height="75" fill="white"/>
</clipPath>
</defs>
</svg>
